korla/status/symbolic/gser-icon-playing-symbolic.svg

<svg style="clip-rule:evenodd;fill-rule:evenodd;stroke-linejoin:round;stroke-miterlimit:2" version="1.1" viewBox="0 0 16 16" xmlns="http://www.w3.org/2000/svg">
 <path d="m1 2c-0.554 0-1 0.446-1 1v10c0 0.554 0.446 1 1 1h14c0.554 0 1-0.446 1-1v-10c0-0.554-0.446-1-1-1h-14zm0 0.7h14c0.166 0 0.3 0.134 0.3 0.3v10c0 0.166-0.134 0.3-0.3 0.3h-14c-0.166 0-0.3-0.134-0.3-0.3v-10c0-0.166 0.134-0.3 0.3-0.3z" style="fill:rgb(223,223,223)"/>
 <path d="m1 2c-0.554 0-1 0.446-1 1v10c0 0.554 0.446 1 1 1h14c0.554 0 1-0.446 1-1v-10c0-0.554-0.446-1-1-1h-14zm4 2c-2.194 0-4 1.806-4 4s1.806 4 4 4 4-1.806 4-4-1.806-4-4-4z" style="fill-opacity:.3;fill:rgb(223,223,223)"/>
 <path d="m11 9h3c0.277 0 0.5 0.223 0.5 0.5s-0.223 0.5-0.5 0.5h-3c-0.277 0-0.5-0.223-0.5-0.5s0.223-0.5 0.5-0.5z" style="fill:rgb(223,223,223)"/>
 <path d="m11 7h3c0.277 0 0.5 0.223 0.5 0.5s-0.223 0.5-0.5 0.5h-3c-0.277 0-0.5-0.223-0.5-0.5s0.223-0.5 0.5-0.5z" style="fill:rgb(223,223,223)"/>
 <path d="m11 5h3c0.277 0 0.5 0.223 0.5 0.5s-0.223 0.5-0.5 0.5h-3c-0.277 0-0.5-0.223-0.5-0.5s0.223-0.5 0.5-0.5z" style="fill:rgb(223,223,223)"/>
 <g transform="matrix(2,0,0,2,-5,-8)">
  <path d="m7 8c0 1.097-0.903 2-2 2s-2-0.903-2-2 0.903-2 2-2 2 0.903 2 2z" style="fill-rule:nonzero;fill:rgb(223,223,223)"/>
 </g>
</svg>

<svg xmlns="http://www.w3.org/2000/svg" width="16" height="16" version="1.1">
 <path style="fill:#dfdfdf" d="M 1,2 C 0.446,2 0,2.446 0,3 V 13 C 0,13.554 0.446,14 1,14 H 15 C 15.554,14 16,13.554 16,13 V 3 C 16,2.446 15.554,2 15,2 Z M 5,4 A 4,4 0 0 1 9,8 4,4 0 0 1 5,12 4,4 0 0 1 1,8 4,4 0 0 1 5,4 Z M 11,5 H 14 C 14.277,5 14.5,5.223 14.5,5.5 14.5,5.777 14.277,6 14,6 H 11 C 10.723,6 10.5,5.777 10.5,5.5 10.5,5.223 10.723,5 11,5 Z M 5,6 A 2,2 0 0 0 3,8 2,2 0 0 0 5,10 2,2 0 0 0 7,8 2,2 0 0 0 5,6 Z M 11,7 H 14 C 14.277,7 14.5,7.223 14.5,7.5 14.5,7.777 14.277,8 14,8 H 11 C 10.723,8 10.5,7.777 10.5,7.5 10.5,7.223 10.723,7 11,7 Z M 11,9 H 14 C 14.277,9 14.5,9.223 14.5,9.5 14.5,9.777 14.277,10 14,10 H 11 C 10.723,10 10.5,9.777 10.5,9.5 10.5,9.223 10.723,9 11,9 Z"/>
</svg>
